X:95
T:Humours of Ballymanus, The
R:slip jig
Z:hn-slipjig-95
M:9/8
L:1/8
K:D
~A3 AGF AGF | ~A3 AGF Bcd | ~A3 AGF AGF | ~B3 B2A Bcd :|
|: dfa afd cBA | dfa afd fga | dfa afd cBA | ~B3 B2A Bcd :|
|: ~F3 dAF dAG | ~F3 dAF Bcd | ~F3 dAF dAF | ~B3 B2A Bcd :|
P:variations
|: ABA AGF A2F | ABA AFA Bcd | ABA AGF AF/G/A | BcB B2A Bcd :|
|: dfa afd cBA | dcd fed fga | dfa afd cBA | BcB B2A Bcd :|
|: F2d dAF dAG | F2d dAF Bcd | F2d dAF dAF | BcB B2A Bcd :|

